X: 18
T:Digging for Gold (#128)
M:6/8
L:1/8
S:Sergt. James O'Neill manuscripts
K:G
eAB c2 e|dcB c2 d|eAB c2 e|dcd eag|
eAB c2 e|d2  c Bcd|eAA gfe|dcB A2 z:|
|:eaa efg|dec Bcd|eAB c2 e|dcd efg|
eaa bag|edc Bcd|eAA gfe|dcB A2 z:||

